X: 114
P: Longways for as many as will
M: 2/4
L: 1/16
K: G
V: 1
[|\
d2d2 g2fe | dcBA B2G2 | d2d2 g2e2 | dcBA B4 |\
c2B2 e2d2 | c2B2 A2G2 | c2B2 e2d2 | c2B2 A4 |
V: 2 clef=bass middle=d
[|\
g4 z2G2 | d4 e2f2 | g4 z2c2 | B2A2G2d2 |\
g4 z2G2 | d4 e2f2 | g4 B4 | c2d2 G4 |]\
g4 z2G2 | d4 e2g2 | f4 z2c2 | B2A2G2d2 |\
g4 z2G2 | d4 e2f2 | g4 B4 | c2d2 G4 |]

